lib/radiotmp/nrk-hardware-tv-expressive.svg

<svg width="24" height="24" viewBox="0 0 24 24" fill="none" xmlns="http://www.w3.org/2000/svg">
<path fill-rule="evenodd" clip-rule="evenodd" d="M5.00007 4.00065C4.99981 2.34354 6.34305 1 8.00016 1H15.9996C17.6567 1 19 2.34354 18.9997 4.00065C18.9989 9.33355 18.9989 14.6665 18.9997 19.9993C19 21.6565 17.6567 23 15.9996 23H8.00016C6.34306 23 4.99981 21.6565 5.00007 19.9993C5.00091 14.6665 5.00091 9.33355 5.00007 4.00065ZM6.99993 19.9996C6.99972 20.552 7.4475 21 7.99995 21H15.9998C16.5523 21 17.0001 20.552 16.9999 19.9996C16.9978 14.6665 16.9978 9.33348 16.9999 4.00043C17.0001 3.44798 16.5523 3 15.9998 3H7.99995C7.4475 3 6.99972 3.44798 6.99993 4.00043C7.00197 9.33348 7.00197 14.6665 6.99993 19.9996ZM13.4999 18C13.4999 18.8284 12.8283 19.5 11.9999 19.5C11.1715 19.5 10.4999 18.8284 10.4999 18C10.4999 17.1716 11.1715 16.5 11.9999 16.5C12.8283 16.5 13.4999 17.1716 13.4999 18Z" fill="black"/>
</svg>

<svg xmlns="http://www.w3.org/2000/svg" viewBox="0 0 24 24"><path fill="#000" fill-rule="evenodd" d="M5 4a3 3 0 0 1 3-3h8a3 3 0 0 1 3 3v16a3 3 0 0 1-3 3H8a3 3 0 0 1-3-3V4Zm2 16a1 1 0 0 0 1 1h8a1 1 0 0 0 1-1c-.002-5.334-.002-10.667 0-16a1 1 0 0 0-1-1H8a1 1 0 0 0-1 1c.002 5.333.002 10.666 0 16Zm6.5-2a1.5 1.5 0 1 1-3 0 1.5 1.5 0 0 1 3 0Z" clip-rule="evenodd"/></svg>
